src/img/print.svg

<svg fill="none" height="16" viewBox="0 0 15 16" width="15" xmlns="http://www.w3.org/2000/svg"><path clip-rule="evenodd" d="m12.2478 5.33329h.6667c1.1333 0 2 .86667 2 2v3.33331c0 1.1334-.8667 2-2 2h-.6667v2c0 .4-.2667.6667-.6667.6667h-7.99996c-.4 0-.66667-.2667-.66667-.6667v-2h-.66667c-1.13333 0-1.999997-.8666-1.999997-2v-3.33331c0-1.13333.866667-2 1.999997-2h.66667v-4c0-.399997.26667-.666664.66667-.666664h7.99996c.4 0 .6667.266667.6667.666664zm-1.3333-3.33333h-6.6667v3.33333h6.6667zm0 12.00004h-6.6667v-4.00004h6.6667zm2-2.6667c.4 0 .6666-.2667.6666-.6667v-3.33331c0-.4-.2666-.66666-.6666-.66666h-10.6667c-.4 0-.66666.26666-.66666.66666v3.33331c0 .4.26666.6667.66666.6667h.66667v-2.00001c0-.4.26667-.66666.66667-.66666h7.99996c.4 0 .6667.26666.6667.66666v2.00001z" fill="#6f6f6f" fill-rule="evenodd"/></svg>

<svg width="15" height="16" viewBox="0 0 15 16" fill="none" 
  xmlns="http://www.w3.org/2000/svg">
  <path fill-rule="evenodd" clip-rule="evenodd" d="M12.2478 5.33329H12.9145C14.0478 5.33329 14.9145 6.19996 14.9145 7.33329V10.6666C14.9145 11.8 14.0478 12.6666 12.9145 12.6666H12.2478V14.6666C12.2478 15.0666 11.9811 15.3333 11.5811 15.3333H3.58114C3.18114 15.3333 2.91447 15.0666 2.91447 14.6666V12.6666H2.2478C1.11447 12.6666 0.247803 11.8 0.247803 10.6666V7.33329C0.247803 6.19996 1.11447 5.33329 2.2478 5.33329H2.91447V1.33329C2.91447 0.933293 3.18114 0.666626 3.58114 0.666626H11.5811C11.9811 0.666626 12.2478 0.933293 12.2478 1.33329V5.33329ZM10.9145 1.99996H4.2478V5.33329H10.9145V1.99996ZM10.9145 14H4.2478V9.99996H10.9145V14ZM12.9145 11.3333C13.3145 11.3333 13.5811 11.0666 13.5811 10.6666V7.33329C13.5811 6.93329 13.3145 6.66663 12.9145 6.66663H2.2478C1.8478 6.66663 1.58114 6.93329 1.58114 7.33329V10.6666C1.58114 11.0666 1.8478 11.3333 2.2478 11.3333H2.91447V9.33329C2.91447 8.93329 3.18114 8.66663 3.58114 8.66663H11.5811C11.9811 8.66663 12.2478 8.93329 12.2478 9.33329V11.3333H12.9145Z" fill="#6F6F6F"/>
</svg>
